X:6297
T:Give Us a Drink of Water
M:9/8
L:1/8
K:G Major
BAG AGE DEG|BAG GFG ABc|BAG AGE DEG|cBA BGE D3:|!
Bdd dge dBG|Bdd dBG A2G|Bdd dge dBG|cBA BGE D3|!
Bdd dge dBG|Bdd dBG Aef|gfe dBd cBA|cBA BGE D3:|!
